X:2
T:Need More Women
N:So named because Walter once observed this at a dance in San Antonio
N: 
C:copyright 1997 Kaubells
R:Reel
E:16
M:C
K:DDor
|:"Dm"d2 de f2 fg|agfe d2 g2|"C"c6 e2|"Am"efed c2 A2|*
"Dm"d2 de f2 fg|agfe d2 ab|"F"c'ba2 "G"b2 g2|1"A"a4 "A7"z2A2:|2"A"a4 "A7"z4|]
K:D
E:18
"D"^F2A2 "G"G2B2|"A"A^c-c"D"d-d4|"D"^F2A2 "G"G2B2|"Em"AF-F"A7"E-E4|*
E:16
"D"^F2A2 "G"G2B2|"A"Ac-c"D"d-d4|1"...A7"cde2 A2>c2|"D"d8:|2"...A7"abc'2 A2>c2|"D"d8|]*
